X:38
T:Alborada de Maquilo (XA 11)
R:Alborada
C:Tradicional
S:Msica Tradicional Asturiana, (C) Tello & Tito. Asturies, 2001.
S:http://pagina.de/MusTradAst <telloytito@asturies.org>
A:Asturies
Z:Mtodu de Xuacu Amieva 11
M:3/8
L:1/8
Q:3/8=50
K:C
C/D/
|: .E ~E/D/E/F/|G/E/ C E/G/|F/D/ B, D/F/|~E C C/D/|.E ~E/D/E/F/|G/E/ C E/G/|
|F/D/ B, ~D|[1 C2 C/D/ :|[2 C2 E/F/|
|: .G ~G/F/G/A/|B/G/ E E/G/|F/D/ B, D|~G E E/F/|.G ~G/F/G/A/|B/G/ E E/G/|
|F/D/ B, ~D|[1 C2 E/F/ :|[2 C2 z||
